public/img/favicon/logo.svg

<svg width="96" height="48" viewBox="0 0 96 48" fill="none" xmlns="http://www.w3.org/2000/svg">
<path d="M6.60827 13.7243C10.4234 13.7243 13.5345 16.8354 13.5345 20.6732C13.5345 24.511 10.4234 27.6221 6.60827 27.6221H3.70154V18.2887H0V31.3236H6.60827C12.4899 31.3236 17.2587 26.5547 17.2587 20.6732C17.2587 14.8143 12.5353 10.0227 6.63098 10.0227H0V13.7243H6.60827Z" fill="url(#paint0_linear_120_100)"/>
<path d="M19.0728 22.9895C19.0728 27.5766 22.8197 31.3236 27.4296 31.3236C28.4061 31.3236 29.3372 31.1646 30.2682 30.824V26.6229C29.4734 27.236 28.5196 27.6221 27.4296 27.6221C24.7727 27.6221 22.797 25.442 22.797 22.9895C22.797 20.4688 24.7954 18.3341 27.4296 18.3341C29.2236 18.3341 30.7451 19.356 31.5399 20.8321H25.0452V24.5564H35.6048C35.6956 24.0114 35.7638 23.4663 35.7638 22.944C35.7638 21.468 35.3323 19.4469 33.8108 17.6302C32.2666 15.8135 29.973 14.6553 27.4296 14.6553C22.8197 14.6553 19.0728 18.3796 19.0728 22.9895Z" fill="url(#paint1_linear_120_100)"/>
<path d="M43.6081 27.6221L51.7378 14.6553H37.2269V18.3341H45.0387L36.909 31.3236H52.4645V27.6221H43.6081Z" fill="url(#paint2_linear_120_100)"/>
<path d="M54.5101 14.6553V31.3236H58.2343V14.6553C56.8481 15.1508 56.0317 15.144 54.5101 14.6553ZM56.3836 13.7243C57.4057 13.7243 58.2343 12.8843 58.2343 11.8621C58.2343 10.84 57.4057 10 56.3836 10C55.3614 10 54.5328 10.84 54.5328 11.8621C54.5328 12.8843 55.3614 13.7243 56.3836 13.7243Z" fill="url(#paint3_linear_120_100)"/>
<path d="M61.6229 26.2368C62.9173 29.2117 65.8241 31.3236 69.2985 31.3236C73.9084 31.3236 77.6327 27.5994 77.6327 22.9895C77.6327 18.3796 73.9084 14.6553 69.2985 14.6553C64.6886 14.6553 60.9644 18.3796 60.9644 22.9895C60.9644 24.1476 61.1915 25.2149 61.6229 26.2368ZM64.6659 22.9895C64.6659 20.4461 66.7551 18.3569 69.2985 18.3569C71.8419 18.3569 73.9311 20.4461 73.9311 22.9895C73.9311 25.5328 71.8419 27.6221 69.2985 27.6221C66.7551 27.6221 64.6659 25.5328 64.6659 22.9895ZM61.0325 31.3236C61.7592 35.1387 65.1882 38 69.185 38C73.1136 38 76.6335 35.2068 77.3601 31.3236H73.5223C72.7957 33.1176 71.1606 34.2985 69.185 34.2985C67.3001 34.2985 65.5516 33.0949 64.8703 31.3236H61.0325ZM66.7551 22.9895C66.7551 24.352 67.9133 25.5101 69.2985 25.5101C70.6837 25.5101 71.8419 24.352 71.8419 22.9895C71.8419 21.6042 70.6837 20.4461 69.2985 20.4461C67.9133 20.4461 66.7551 21.6042 66.7551 22.9895Z" fill="url(#paint4_linear_120_100)"/>
<path d="M84.0922 31.3236V22.0357C84.0922 20.0146 85.7046 18.3341 87.7711 18.3341C89.8376 18.3341 91.4953 20.0146 91.4953 22.0357V31.3236H95.1969V22.0357C95.1969 17.9708 91.8814 14.6553 87.7711 14.6553C83.7062 14.6553 80.368 17.9708 80.368 22.0357V31.3236H84.0922Z" fill="url(#paint5_linear_120_100)"/>
<defs>
<linearGradient id="paint0_linear_120_100" x1="0.228359" y1="9.71314" x2="90.9102" y2="58.801" gradientUnits="userSpaceOnUse">
<stop stop-color="#BC3CD8"/>
<stop offset="1" stop-color="#C54B8C"/>
</linearGradient>
<linearGradient id="paint1_linear_120_100" x1="0.228359" y1="9.71314" x2="90.9102" y2="58.801" gradientUnits="userSpaceOnUse">
<stop stop-color="#BC3CD8"/>
<stop offset="1" stop-color="#C54B8C"/>
</linearGradient>
<linearGradient id="paint2_linear_120_100" x1="0.228359" y1="9.71314" x2="90.9102" y2="58.801" gradientUnits="userSpaceOnUse">
<stop stop-color="#BC3CD8"/>
<stop offset="1" stop-color="#C54B8C"/>
</linearGradient>
<linearGradient id="paint3_linear_120_100" x1="0.228359" y1="9.71314" x2="90.9102" y2="58.801" gradientUnits="userSpaceOnUse">
<stop stop-color="#BC3CD8"/>
<stop offset="1" stop-color="#C54B8C"/>
</linearGradient>
<linearGradient id="paint4_linear_120_100" x1="0.228359" y1="9.71314" x2="90.9102" y2="58.801" gradientUnits="userSpaceOnUse">
<stop stop-color="#BC3CD8"/>
<stop offset="1" stop-color="#C54B8C"/>
</linearGradient>
<linearGradient id="paint5_linear_120_100" x1="0.228359" y1="9.71314" x2="90.9102" y2="58.801" gradientUnits="userSpaceOnUse">
<stop stop-color="#BC3CD8"/>
<stop offset="1" stop-color="#C54B8C"/>
</linearGradient>
</defs>
</svg>

<svg width="96" height="48" fill="none" xmlns="http://www.w3.org/2000/svg"><path d="M6.608 13.724c3.815 0 6.926 3.111 6.926 6.95 0 3.837-3.11 6.948-6.926 6.948H3.702V18.29H0v13.035h6.608c5.882 0 10.65-4.77 10.65-10.65 0-5.86-4.723-10.651-10.627-10.651H0v3.701h6.608Z" fill="url(#a)"/><path d="M19.073 22.99c0 4.587 3.747 8.334 8.357 8.334a8.13 8.13 0 0 0 2.838-.5v-4.201c-.795.613-1.748 1-2.838 1-2.657 0-4.633-2.181-4.633-4.634 0-2.52 1.998-4.655 4.633-4.655 1.794 0 3.315 1.022 4.11 2.498h-6.495v3.724h10.56c.09-.545.159-1.09.159-1.612a8.302 8.302 0 0 0-1.953-5.314c-1.544-1.816-3.838-2.975-6.381-2.975-4.61 0-8.357 3.725-8.357 8.335Z" fill="url(#b)"/><path d="m43.608 27.622 8.13-12.967H37.227v3.68h7.812l-8.13 12.989h15.556v-3.702h-8.857Z" fill="url(#c)"/><path d="M54.51 14.655v16.669h3.724V14.655c-1.386.496-2.202.489-3.724 0Zm1.874-.93a1.86 1.86 0 0 0 1.85-1.863A1.86 1.86 0 0 0 56.384 10a1.86 1.86 0 0 0-1.851 1.862 1.86 1.86 0 0 0 1.85 1.862Z" fill="url(#d)"/><path d="M61.623 26.237c1.294 2.975 4.201 5.087 7.676 5.087a8.325 8.325 0 0 0 8.334-8.335 8.325 8.325 0 0 0-8.334-8.334 8.325 8.325 0 0 0-8.335 8.335c0 1.158.227 2.225.659 3.247Zm3.043-3.247c0-2.544 2.09-4.633 4.633-4.633s4.632 2.09 4.632 4.633-2.09 4.632-4.632 4.632c-2.544 0-4.633-2.09-4.633-4.633Zm-3.633 8.334C61.758 35.139 65.188 38 69.184 38c3.929 0 7.448-2.793 8.175-6.676h-3.838c-.726 1.794-2.361 2.974-4.337 2.974-1.885 0-3.633-1.203-4.315-2.974h-3.838Zm5.722-8.335c0 1.363 1.158 2.521 2.544 2.521 1.385 0 2.543-1.158 2.543-2.52 0-1.386-1.158-2.544-2.543-2.544-1.386 0-2.544 1.158-2.544 2.543Z" fill="url(#e)"/><path d="M84.092 31.324v-9.288c0-2.021 1.613-3.702 3.68-3.702 2.066 0 3.723 1.68 3.723 3.702v9.288h3.702v-9.288c0-4.065-3.316-7.38-7.426-7.38-4.065 0-7.403 3.315-7.403 7.38v9.288h3.724Z" fill="url(#f)"/><defs><linearGradient id="a" x1=".228" y1="9.713" x2="90.91" y2="58.801" gradientUnits="userSpaceOnUse"><stop stop-color="#BC3CD8"/><stop offset="1" stop-color="#C54B8C"/></linearGradient><linearGradient id="b" x1=".228" y1="9.713" x2="90.91" y2="58.801" gradientUnits="userSpaceOnUse"><stop stop-color="#BC3CD8"/><stop offset="1" stop-color="#C54B8C"/></linearGradient><linearGradient id="c" x1=".228" y1="9.713" x2="90.91" y2="58.801" gradientUnits="userSpaceOnUse"><stop stop-color="#BC3CD8"/><stop offset="1" stop-color="#C54B8C"/></linearGradient><linearGradient id="d" x1=".228" y1="9.713" x2="90.91" y2="58.801" gradientUnits="userSpaceOnUse"><stop stop-color="#BC3CD8"/><stop offset="1" stop-color="#C54B8C"/></linearGradient><linearGradient id="e" x1=".228" y1="9.713" x2="90.91" y2="58.801" gradientUnits="userSpaceOnUse"><stop stop-color="#BC3CD8"/><stop offset="1" stop-color="#C54B8C"/></linearGradient><linearGradient id="f" x1=".228" y1="9.713" x2="90.91" y2="58.801" gradientUnits="userSpaceOnUse"><stop stop-color="#BC3CD8"/><stop offset="1" stop-color="#C54B8C"/></linearGradient></defs></svg>
